coreui/free/cil-double-quote-sans-right.svg

<svg xmlns="http://www.w3.org/2000/svg" viewBox="0 0 512 512">
  <path fill="var(--ci-primary-color, currentColor)" d="M280,185.143V416H496V16H457.6ZM464,384H312V198.857L464,54.1Z" class="ci-primary"/>
  <path fill="var(--ci-primary-color, currentColor)" d="M232,16H193.6L16,185.143V416H232ZM200,384H48V198.857L200,54.1Z" class="ci-primary"/>
</svg>

<svg viewBox="0 0 512 512" xmlns="http://www.w3.org/2000/svg"><g><path d="M280 185.14v230.85h216v-400h-38.4Zm184 198.85H312V198.84L464 54.08Z"/><path d="M232 16h-38.4L16 185.14v230.85h216Zm-32 368H48V198.85L200 54.09Z"/></g></svg>
